svg/white/gno.svg

<svg xmlns="http://www.w3.org/2000/svg" width="32" height="32" viewBox="0 0 32 32">
  <path fill="#FFF" fill-rule="evenodd" d="M16,32 C7.163444,32 0,24.836556 0,16 C0,7.163444 7.163444,0 16,0 C24.836556,0 32,7.163444 32,16 C32,24.836556 24.836556,32 16,32 Z M24.7772063,10.5 L23.9792809,11.3093645 C24.6139943,12.3210702 24.8134757,13.590301 24.3782436,14.8043478 C23.6528568,16.8645485 21.4041577,17.9498328 19.35494,17.2140468 C19.0647853,17.1036789 18.7927652,16.9749164 18.5570145,16.8093645 L16.0000261,19.40301 L13.7694617,17.1220736 C12.7357855,17.8210702 11.4119546,18.0234114 10.1606623,17.5819398 C8.05704061,16.8093645 6.96896041,14.4732441 7.73061655,12.3578595 C7.83942457,12.0267559 8.0026366,11.7324415 8.1839833,11.4565217 L7.22284579,10.4816054 L7.04149909,10.7943144 C6.04409224,12.4498328 5.50005214,14.3628763 5.50005214,16.3311037 C5.48191747,22.1989967 10.1969317,27 15.9818914,27 L16.0000261,27 C21.7849858,27 26.4818653,22.235786 26.5,16.367893 C26.5,14.4180602 25.9740946,12.5050167 24.9766877,10.8311037 L24.7772063,10.5 Z M9.36273685,12.6521739 C9.0907168,13.0200669 8.92750477,13.4799331 8.92750477,13.9765886 C8.92750477,15.1722408 9.88864228,16.1471572 11.0673958,16.1471572 C11.5570319,16.1471572 12.0103987,15.9816054 12.3730921,15.687291 L9.36273685,12.6521739 Z M19.8627108,15.5033445 C20.2072695,15.7424749 20.6062322,15.8712375 21.059599,15.8712375 C22.2383525,15.8712375 23.1994901,14.8963211 23.1994901,13.7006689 C23.1994901,13.2591973 23.0725474,12.8361204 22.8367967,12.4866221 L19.8627108,15.5033445 Z M16.0362954,17.7842809 L24.5958596,9.13879599 L24.2694356,8.77090301 C22.1476792,6.37959866 19.1010546,5 15.9274874,5 L15.9093527,5 C12.7720548,5 9.85237294,6.28762542 7.71248188,8.58695652 L7.36792315,8.9548495 L16.0362954,17.7842809 Z M8.78242741,8.9548495 C10.7047024,7.06020067 13.2254216,6.03010033 15.9274874,6.03010033 L15.9456221,6.03010033 C18.6658226,6.03010033 21.277215,7.15217391 23.1994901,9.10200669 L16.0362954,16.3311037 L8.78242741,8.9548495 Z"/>
</svg>

<svg xmlns="http://www.w3.org/2000/svg" width="32" height="32"><path fill="#FFF" fill-rule="evenodd" d="M16 32C7.163 32 0 24.837 0 16S7.163 0 16 0s16 7.163 16 16-7.163 16-16 16zm8.777-21.5l-.798.81c.635 1.011.834 2.28.4 3.494-.726 2.06-2.975 3.146-5.024 2.41-.29-.11-.562-.24-.798-.405L16 19.403l-2.23-2.28a4.024 4.024 0 0 1-3.61.459 4.09 4.09 0 0 1-2.43-5.224c.11-.331.273-.626.454-.901l-.961-.975-.182.312a10.735 10.735 0 0 0-1.54 5.537C5.48 22.2 10.196 27 15.98 27H16c5.785 0 10.482-4.764 10.5-10.632 0-1.95-.526-3.863-1.523-5.537l-.2-.331zM9.363 12.652a2.225 2.225 0 0 0-.435 1.325c0 1.195.96 2.17 2.14 2.17.489 0 .942-.165 1.305-.46l-3.01-3.035zm10.5 2.851c.344.24.743.368 1.197.368 1.178 0 2.14-.975 2.14-2.17 0-.442-.127-.865-.363-1.214l-2.974 3.016zm-3.827 2.281l8.56-8.645-.327-.368A11.184 11.184 0 0 0 15.927 5h-.018c-3.137 0-6.057 1.288-8.197 3.587l-.344.368 8.668 8.83zm-7.254-8.83a10.082 10.082 0 0 1 7.145-2.924h.019c2.72 0 5.331 1.122 7.253 3.072l-7.163 7.23-7.254-7.377z"/></svg>
